X: 28
T:The White Cockade
Z:Jack Campin  *  May 2000  *  http://www.campin.me.uk/
M:2/4
L:1/8
K:G
G/A/|BB BA/G/|BB Bg   |dB BA/G/|FA AG/A/|BB BA/G/|Bd g>(a|b)g e/f/g/e/|   dB B:|
B/c/|dB gB   |dB BB/c/|dB gf/g/|aA AG/A/|BB BA/G/|Bd g>(a|b)g e/f/g/e/|[1 dB B:|
                                                                       [2 df g|]

